!!!SOCIAL_FUNCTION:	social gatherings
!!!PDT:	1939
!!!OTL: No_96_"I_Hear_the_Bird_Singing".krn
!!!LANG: Non-Tone
!!!LING_GROUP: Wakashan
!!!REG: Pacific Northwest
**kern
*staff1
=1-
=
*clefF4
*k[]
*M2/4
4A\
4A\
=2
4E\
8.E\L
16A\Jk
=3
2A\
=4
8B\L
[8A\J
8.A\L]
16A\Jk
=5
4G\
4G\
=6
12A\L
12G\
12E\J
8.E\L
16E\Jk
=7
2E\
=8
4G\
8r
8G\
=9
4E\
8G\L
8E\J
=10
4.D\
8C/
=11
[2AA/
=12
2AA/]
=13
2AA/
=14
2r
=15
2r
=16
2r
=17:|!
4E\
4E\
=18
4E\
8.AA/L
16E/Jk
=19
2E\
=20
4G\
4E\
=21
16E\LK
[8.D\J
4D\]
=22||
*M3/4
4E\
4D\
8.AA/L
16AA/Jk
=23
2.AA/
=24
2AA/
4r
==
*-
